<?xml version="1.0" encoding="UTF-8"?>
<map version="1.10" tiledversion="1.12.1" orientation="orthogonal" renderorder="right-down" width="15" height="30" tilewidth="32" tileheight="32" infinite="0" nextlayerid="7" nextobjectid="13">
 <tileset firstgid="1" source="tiles-water.tsx"/>
 <tileset firstgid="19" source="tiles-grass medium-32x32.tsx"/>
 <layer id="1" name="Background" width="15" height="30">
  <data encoding="csv">
47,47,47,47,48,2684354577,10,11,12,1610612753,46,47,47,47,47,
47,47,47,47,33,2684354577,10,11,12,1610612753,46,47,47,47,47,
47,33,47,47,48,2684354577,10,11,12,1610612753,46,38,47,47,47,
47,47,47,47,48,2684354577,10,11,12,1610612753,46,47,47,33,47,
47,47,47,33,48,2684354577,10,11,12,1610612753,46,47,47,47,47,
47,47,47,47,48,2684354577,10,11,12,1610612753,46,47,47,47,47,
47,57,47,47,48,2684354577,10,11,12,1610612753,46,47,47,47,47,
47,47,47,57,48,2684354577,10,11,12,1610612753,46,47,47,47,47,
47,47,47,47,48,2684354577,10,11,12,1610612753,46,47,61,47,47,
47,47,47,47,48,2684354577,10,11,12,1610612753,46,47,47,47,47,
47,47,47,47,48,2684354577,10,11,12,1610612753,46,47,47,47,47,
47,55,47,47,47,2684354577,10,11,12,1610612753,46,61,47,47,47,
47,47,47,47,47,2684354577,10,11,12,1610612753,46,47,47,47,47,
47,47,47,47,48,2684354577,10,11,12,1610612753,46,47,57,47,47,
47,47,47,47,48,2684354577,10,11,12,1610612753,46,47,47,47,47,
47,47,47,55,48,2684354577,10,11,12,1610612753,46,47,47,47,47,
47,47,47,47,48,2684354577,10,11,12,1610612753,46,31,47,57,47,
47,55,47,47,48,2684354577,10,11,12,1610612753,46,47,47,47,47,
47,47,47,47,48,2684354577,10,11,12,1610612753,46,47,47,47,47,
47,47,47,47,48,2684354577,10,11,12,1610612753,46,47,47,31,47,
47,47,55,47,48,2684354577,10,11,12,1610612753,46,57,47,47,47,
47,47,47,47,48,2684354577,10,11,12,1610612753,46,47,47,47,47,
33,47,47,47,48,2684354577,10,11,12,1610612753,46,47,47,47,47,
47,47,47,47,48,2684354577,10,11,12,1610612753,46,47,47,47,47,
47,47,47,55,48,2684354577,10,11,12,1610612753,46,38,47,47,61,
47,47,47,47,48,2684354577,10,11,12,1610612753,46,47,47,47,47,
47,47,47,47,48,2684354577,10,11,12,1610612753,46,47,47,38,47,
47,38,47,47,48,2684354577,10,11,12,1610612753,46,61,47,47,47,
47,47,47,47,48,2684354577,10,11,12,1610612753,46,47,47,47,47,
47,47,38,47,48,2684354577,10,11,12,1610612753,46,47,47,47,47
</data>
 </layer>
 <objectgroup id="5" name="LeftBoundary" class="Boundary ">
  <object id="10" x="192" y="0">
   <point/>
  </object>
 </objectgroup>
 <objectgroup id="6" name="RightBoundary" class="Boundary">
  <object id="11" x="284" y="0">
   <point/>
  </object>
 </objectgroup>
</map>
